X: 20859
T: Jokijenkka
R: hornpipe
M: 4/4
K: Amajor
D EFAB|c4 c3B|ABcd cBAc|e2B2B4|B3B ABde|
f3e d2dc|BABc dcBA|B2Bc BGE2|EFAB cde2|
f3e dcB2|BABc defg|a3g fed2|dcda gfed|
e2cA e2cA|BABc defg|a8|a2z:|
z zEGA|:B2GE B2GE|BGEd BG (3FED|B2GE B2GE|DCDF BA (3GFE|
B2GE B2GE|BGEd BG (3FED|B2GE B2GE|1 DCDF BA (3GFE:|2 DCDE FGAB||
A2GA B2^AB|c2^Bc d2cd|e2^de f2^ef|=g2fg ^gefg|
|:a2ga eAce|=g2fg dGBd|f2^ef dFAd|e2e2 edce|=g2fg dGBd|
f2^ef dFAd|1 ecAB =GEGA|BA=GA EAce:|2 ecBA B=GFE|=GBe2 A4||

